X: 40097
T: Tibbie Fowler O' The Glen
R: strathspey
M: 4/4
K: Gminor
G<GG>A F>GAc|d>GG>A FDDD|G<GG>A F>GAc|d>GG>A FDDD|
fddB c/dcAA/|fddf g>afd|c>dfg df>cA|BGGA FDDD|

